X:21116 
T:MAID I NE'ER FORGOT (reel), The
B:DMI.0790
Z:Nordberg/Black
R:reel
%Q:1/4=180
M:C|
L:1/8
K:D
"E dorian"
B,|E3F GFGA|B2ec dBAd|BGEF GABc|dBec dBAF|
EB,EF G3A|B2ec dBAc|BGEF GFGB|dBAF GEE||
A|BABd edef|gfed edBA|BGEF GABc|d2AG FGAF|
E2BE dEBE|Beec dBAd|BGEF GABc|dBAF GEE2|]

%%%

